src/icons/search.svg

<?xml version="1.0" encoding="UTF-8"?>
<svg width="20px" height="20px" viewBox="0 0 20 20" version="1.1" xmlns="http://www.w3.org/2000/svg" xmlns:xlink="http://www.w3.org/1999/xlink">
    <path d="M19.6959131,18.2168311 L14.7655709,13.2661587 C16.0332485,11.8112558 16.7278166,9.98069022 16.7278166,8.07499209 C16.7278166,3.62251167 12.9756946,-1.10134124e-13 8.36390831,-1.10134124e-13 C3.752122,-1.10134124e-13 5.5067062e-14,3.62251167 5.5067062e-14,8.07499209 C5.5067062e-14,12.5274725 3.752122,16.1499842 8.36390831,16.1499842 C10.0952373,16.1499842 11.7451092,15.6458238 13.1557005,14.6887617 L18.1234983,19.6770003 C18.3311414,19.8851946 18.6104233,20 18.9097057,20 C19.1929877,20 19.4617237,19.8957272 19.6657303,19.7061405 C20.0991989,19.3034441 20.1130176,18.6356774 19.6959131,18.2168311 Z M8.36390831,2.10651968 C11.7727464,2.10651968 14.5459275,4.78390618 14.5459275,8.07499209 C14.5459275,11.366078 11.7727464,14.0434645 8.36390831,14.0434645 C4.9550702,14.0434645 2.18188913,11.366078 2.18188913,8.07499209 C2.18188913,4.78390618 4.9550702,2.10651968 8.36390831,2.10651968 Z"></path>
</svg>

<svg viewBox="0 0 20 20" xmlns="http://www.w3.org/2000/svg">
    <path d="M19.696 18.217l-4.93-4.95a7.884 7.884 0 001.962-5.192C16.728 3.623 12.976 0 8.364 0 3.752 0 0 3.623 0 8.075c0 4.452 3.752 8.075 8.364 8.075a8.48 8.48 0 004.792-1.461l4.967 4.988c.208.208.487.323.787.323.283 0 .552-.104.756-.294a1.03 1.03 0 00.03-1.49zM8.364 2.107c3.409 0 6.182 2.677 6.182 5.968s-2.773 5.968-6.182 5.968c-3.409 0-6.182-2.677-6.182-5.968s2.773-5.968 6.182-5.968z"/>
</svg>
